src/icon/brand/card-mastero/icon_card-mastero_xxl_white.svg

<svg width="48px" height="48px" viewBox="0 0 48 48" version="1.1" xmlns="http://www.w3.org/2000/svg"><g stroke="none" stroke-width="1" fill="none" fill-rule="evenodd"><polygon points="0 0 48 0 48 48 0 48"/><path d="M24.0001459,13.2419537 C23.8647261,13.3480903 23.7322249,13.4574256 23.6026421,13.5696686 C21.3886452,15.4891416 19.9868752,18.3144105 19.9868752,21.4679757 C19.9868752,24.621541 21.3886452,27.4471007 23.6026421,29.3662828 C23.7322249,29.4788167 23.8647261,29.5881519 24.0001459,29.6942885 C24.1355657,29.5881519 24.268067,29.4788167 24.3976497,29.3662828 C26.6116467,27.4471007 28.0131248,24.621541 28.0131248,21.4679757 C28.0131248,18.3144105 26.6116467,15.4891416 24.3976497,13.5696686 C24.268067,13.4574256 24.1355657,13.3480903 24.0001459,13.2419537 Z M30.4932917,11 C28.342335,11 26.3425582,11.64438 24.6769531,12.7493637 C24.7621741,12.8188613 24.8485626,12.8874866 24.9308652,12.9590198 C27.4063624,15.1044328 28.8259354,18.2059476 28.8259354,21.4679757 C28.8259354,24.7302947 27.4063624,27.8315187 24.931157,29.9772225 C24.8491463,30.0484649 24.7621741,30.1170902 24.6769531,30.1865878 C26.3425582,31.2918623 28.342335,31.9362423 30.4932917,31.9362423 C36.2962051,31.9362423 41,27.2496575 41,21.4682665 C41,15.6865848 36.2962051,11 30.4932917,11 Z M23.0691348,29.9772225 C23.1511455,30.0484649 23.2378259,30.1170902 23.3230469,30.1865878 C21.6577337,31.2918623 19.657665,31.9362423 17.5067083,31.9362423 C11.7037949,31.9362423 7,27.2496575 7,21.4679757 C7,15.6868756 11.7037949,11 17.5067083,11 C19.657665,11 21.6574418,11.64438 23.3230469,12.7493637 C23.2378259,12.8188613 23.1517292,12.8874866 23.0691348,12.958729 C20.5936376,15.1044328 19.1743564,18.2059476 19.1743564,21.4679757 C19.1743564,24.7302947 20.5936376,27.8318094 23.0691348,29.9772225 Z M40.6710817,27.9551024 L40.6710817,27.5485847 L40.5645553,27.5485847 L40.441977,27.8280292 L40.3196906,27.5485847 L40.2131643,27.5485847 L40.2131643,27.9551024 L40.2884624,27.9551024 L40.2884624,27.648324 L40.4031606,27.9126477 L40.4810853,27.9126477 L40.5957836,27.6477424 L40.5957836,27.9551024 L40.6710817,27.9551024 Z M39.9969012,27.9551024 L39.9969012,27.6177916 L40.1329047,27.6177916 L40.1329047,27.5491663 L39.7855996,27.5491663 L39.7855996,27.6177916 L39.9221868,27.6177916 L39.9221868,27.9551024 L39.9969012,27.9551024 Z" fill-opacity="0.9" fill="#FFFFFF"/><path d="M35.8532787,37.0691557 L35.8532787,37.1388379 L35.9175486,37.1388379 C35.9310791,37.1388379 35.9439331,37.1354553 35.9520514,37.130043 C35.9601697,37.1246308 35.9655819,37.1151595 35.9655819,37.1036585 C35.9655819,37.0921576 35.9601697,37.0833628 35.9520514,37.0779506 C35.9439331,37.0718618 35.9310791,37.0691557 35.9175486,37.0691557 L35.8532787,37.0691557 Z M35.9182251,37.0204459 C35.9513749,37.0204459 35.9770829,37.0278877 35.995349,37.0427712 C36.0129387,37.0576548 36.0224101,37.0779506 36.0224101,37.1036585 C36.0224101,37.1253074 36.0149683,37.142897 36.0007613,37.1571041 C35.9858777,37.1706346 35.9655819,37.1794294 35.9391974,37.182812 L36.0244397,37.2809083 L35.9574636,37.2809083 L35.8783101,37.1834886 L35.8532787,37.1834886 L35.8532787,37.2809083 L35.7978036,37.2809083 L35.7978036,37.0204459 L35.9182251,37.0204459 Z M35.9006355,37.3702096 C35.9310791,37.3702096 35.9594932,37.3647974 35.9852012,37.3532965 C36.0115857,37.3417956 36.0352641,37.3262355 36.0548833,37.3066162 C36.073826,37.286997 36.0900626,37.2639951 36.100887,37.2369341 C36.112388,37.2105496 36.1184767,37.1821355 36.1184767,37.1516919 C36.1184767,37.1212482 36.112388,37.0928341 36.100887,37.0664496 C36.0900626,37.0400651 36.073826,37.0163867 36.0548833,36.9967675 C36.0352641,36.9771483 36.0115857,36.9615882 35.9852012,36.9507638 C35.9594932,36.9392628 35.9310791,36.9338506 35.9006355,36.9338506 C35.8701918,36.9338506 35.8411012,36.9392628 35.8147167,36.9507638 C35.7876557,36.9615882 35.7639773,36.9771483 35.7450346,36.9967675 C35.7254153,37.0163867 35.7091787,37.0400651 35.6983543,37.0664496 C35.6875299,37.0928341 35.6814412,37.1212482 35.6814412,37.1516919 C35.6814412,37.1821355 35.6875299,37.2105496 35.6983543,37.2369341 C35.7091787,37.2639951 35.7254153,37.286997 35.7450346,37.3066162 C35.7639773,37.3262355 35.7876557,37.3417956 35.8147167,37.3532965 C35.8411012,37.3647974 35.8701918,37.3702096 35.9006355,37.3702096 Z M35.9006355,36.8709337 C35.941227,36.8709337 35.9777594,36.8783755 36.0115857,36.8932591 C36.046765,36.9074661 36.0765321,36.9277619 36.1029166,36.9534699 C36.1286246,36.9785013 36.1489204,37.0082684 36.1644805,37.0427712 C36.1786875,37.0765975 36.1861293,37.1131299 36.1861293,37.1516919 C36.1861293,37.1902538 36.1786875,37.2267862 36.1644805,37.2606125 C36.1489204,37.2944388 36.1286246,37.3242059 36.1029166,37.3492373 C36.0765321,37.3749453 36.046765,37.3952411 36.0115857,37.4101247 C35.9777594,37.4250082 35.941227,37.43245 35.9006355,37.43245 C35.8607204,37.43245 35.822835,37.4250082 35.7876557,37.4101247 C35.7531529,37.3952411 35.7227092,37.3749453 35.6970012,37.3492373 C35.6706167,37.3242059 35.650321,37.2944388 35.6361139,37.2606125 C35.6205539,37.2267862 35.6137886,37.1902538 35.6137886,37.1516919 C35.6137886,37.1131299 35.6205539,37.0765975 35.6361139,37.0427712 C35.650321,37.0082684 35.6706167,36.9785013 35.6970012,36.9534699 C35.7227092,36.9277619 35.7531529,36.9074661 35.7876557,36.8932591 C35.822835,36.8783755 35.8607204,36.8709337 35.9006355,36.8709337 Z M31.3858417,34.3861228 C31.5096459,34.3861228 31.6875721,34.4098012 31.8235538,34.4632467 L31.6341266,35.0423526 C31.5042337,34.9889071 31.3743408,34.9713174 31.2498601,34.9713174 C30.8480038,34.9713174 30.6470757,35.2311033 30.6470757,35.697906 L30.6470757,37.282329 L30.0321139,37.282329 L30.0321139,34.457158 L30.640987,34.457158 L30.640987,34.8001565 C30.8006471,34.5518716 31.0320188,34.3861228 31.3858417,34.3861228 Z M29.1147452,35.0186742 L28.1094281,35.0186742 L28.1094281,36.2952781 C28.1094281,36.5787423 28.2095539,36.7681695 28.5173731,36.7681695 C28.6770331,36.7681695 28.8779612,36.714724 29.0606232,36.6085094 L29.2378729,37.1341699 C29.0430335,37.2701515 28.7358909,37.3533642 28.4700163,37.3533642 C27.7427512,37.3533642 27.4890541,36.9630089 27.4890541,36.306779 L27.4890541,35.0186742 L26.9160369,35.0186742 L26.9160369,34.457158 L27.4890541,34.457158 L27.4890541,33.6 L28.1094281,33.6 L28.1094281,34.457158 L29.1147452,34.457158 L29.1147452,35.0186742 Z M21.2467522,35.6214586 C21.3123752,35.2135136 21.5606601,34.9354616 21.9976957,34.9354616 C22.3934631,34.9354616 22.6478368,35.1837465 22.7127832,35.6214586 L21.2467522,35.6214586 Z M23.3514234,35.8697435 C23.3453347,34.9889071 22.8020846,34.3861228 22.0091966,34.3861228 C21.1818058,34.3861228 20.6033763,34.9889071 20.6033763,35.8697435 C20.6033763,36.767493 21.2054841,37.3526876 22.0511412,37.3526876 C22.4766758,37.3526876 22.8663546,37.2464731 23.209353,36.9569201 L22.9076226,36.5016184 C22.6715152,36.6910456 22.3697847,36.7972601 22.0863205,36.7972601 C21.690553,36.7972601 21.3299649,36.6139216 21.24134,36.1058509 L23.339246,36.1058509 C23.3453347,36.028727 23.3514234,35.9522796 23.3514234,35.8697435 Z M26.0521137,35.1783343 C25.8809527,35.0714432 25.532542,34.9354616 25.1719539,34.9354616 C24.8350441,34.9354616 24.6347925,35.0599423 24.6347925,35.2669591 C24.6347925,35.4557098 24.846545,35.5091553 25.1130961,35.5443346 L25.4019726,35.5856027 C26.0169344,35.6749041 26.3890235,35.9346899 26.3890235,36.4312597 C26.3890235,36.9690976 25.9161321,37.3533642 25.1009187,37.3533642 C24.6395282,37.3533642 24.2139936,37.2349722 23.8770838,36.9866873 L24.1666368,36.5077071 C24.3736536,36.6673672 24.6814728,36.8033488 25.1070074,36.8033488 C25.5264533,36.8033488 25.7510598,36.6795446 25.7510598,36.4603503 C25.7510598,36.3013668 25.5920763,36.2120654 25.25449,36.1653852 L24.964937,36.1241171 C24.3323856,36.0348157 23.9893871,35.7513515 23.9893871,35.2906375 C23.9893871,34.7291213 24.4507776,34.3861228 25.1658651,34.3861228 C25.6150782,34.3861228 26.0230231,34.4869251 26.3179883,34.6817645 L26.0521137,35.1783343 Z M33.6325833,34.9699644 C33.506073,34.9699644 33.3890341,34.9922897 33.2801135,35.0362639 C33.1718694,35.0809146 33.0778323,35.1431549 32.9986788,35.222985 C32.9202018,35.302815 32.8572849,35.3988816 32.8119577,35.5105084 C32.7666305,35.6221351 32.7443052,35.7452627 32.7443052,35.8792148 C32.7443052,36.0138434 32.7666305,36.1362946 32.8119577,36.2479213 C32.8572849,36.359548 32.9202018,36.4556147 32.9986788,36.5354447 C33.0778323,36.6152747 33.1718694,36.6775151 33.2801135,36.7221657 C33.3890341,36.7668164 33.506073,36.7884653 33.6325833,36.7884653 C33.7590936,36.7884653 33.8768091,36.7668164 33.9850532,36.7221657 C34.0939738,36.6775151 34.1886874,36.6152747 34.2678409,36.5354447 C34.3483474,36.4556147 34.4105878,36.359548 34.4565915,36.2479213 C34.5019187,36.1362946 34.5242441,36.0138434 34.5242441,35.8792148 C34.5242441,35.7452627 34.5019187,35.6221351 34.4565915,35.5105084 C34.4105878,35.3988816 34.3483474,35.302815 34.2678409,35.222985 C34.1886874,35.1431549 34.0939738,35.0809146 33.9850532,35.0362639 C33.8768091,34.9922897 33.7590936,34.9699644 33.6325833,34.9699644 Z M33.6325833,34.3861228 C33.8524541,34.3861228 34.0547353,34.4240082 34.2414564,34.5004556 C34.4281774,34.5762265 34.5898671,34.6810879 34.7258487,34.8143635 C34.8625069,34.947639 34.9687214,35.1052695 35.0458453,35.2865784 C35.1229693,35.4685638 35.1615312,35.6661093 35.1615312,35.8792148 C35.1615312,36.0923204 35.1229693,36.2898659 35.0458453,36.4718513 C34.9687214,36.6531601 34.8625069,36.8114671 34.7258487,36.9447427 C34.5898671,37.0780182 34.4281774,37.1822032 34.2414564,37.2586506 C34.0547353,37.3344214 33.8524541,37.3723069 33.6325833,37.3723069 C33.413389,37.3723069 33.2104313,37.3344214 33.0237103,37.2586506 C32.8376657,37.1822032 32.6766526,37.0780182 32.5413475,36.9447427 C32.4060424,36.8114671 32.3005044,36.6531601 32.2227039,36.4718513 C32.14558,36.2898659 32.107018,36.0923204 32.107018,35.8792148 C32.107018,35.6661093 32.14558,35.4685638 32.2227039,35.2865784 C32.3005044,35.1052695 32.4060424,34.947639 32.5413475,34.8143635 C32.6766526,34.6810879 32.8376657,34.5762265 33.0237103,34.5004556 C33.2104313,34.4240082 33.413389,34.3861228 33.6325833,34.3861228 Z M17.6557542,35.8697435 C17.6557542,35.3731737 17.9818396,34.9652287 18.5129122,34.9652287 C19.0209829,34.9652287 19.3639814,35.355584 19.3639814,35.8697435 C19.3639814,36.3839029 19.0209829,36.7735817 18.5129122,36.7735817 C17.9818396,36.7735817 17.6557542,36.3663133 17.6557542,35.8697435 Z M19.9430873,35.8697435 L19.9430873,34.457158 L19.3288021,34.457158 L19.3288021,34.8001565 C19.1332862,34.5457828 18.838321,34.3861228 18.4364648,34.3861228 C17.6442533,34.3861228 17.0238793,35.0064968 17.0238793,35.8697435 C17.0238793,36.7323136 17.6442533,37.3533642 18.4364648,37.3533642 C18.838321,37.3533642 19.1332862,37.1937041 19.3288021,36.9393305 L19.3288021,37.282329 L19.9430873,37.282329 L19.9430873,35.8697435 Z M16.4799527,37.282329 L16.4799527,35.5091553 C16.4799527,34.8414245 16.0544181,34.3922115 15.3690976,34.3861228 C15.0085094,34.380034 14.6357438,34.4923373 14.375958,34.8887813 C14.1811186,34.5755499 13.8732994,34.3861228 13.4423526,34.3861228 C13.1406222,34.3861228 12.8449805,34.4747476 12.6142853,34.8055687 L12.6142853,34.457158 L12,34.457158 L12,37.282329 L12.620374,37.282329 L12.620374,35.7161721 C12.620374,35.2256911 12.8923373,34.9652287 13.3117832,34.9652287 C13.7197281,34.9652287 13.926745,35.2311033 13.926745,35.7100834 L13.926745,37.282329 L14.547119,37.282329 L14.547119,35.7161721 C14.547119,35.2256911 14.8312597,34.9652287 15.2385282,34.9652287 C15.6586506,34.9652287 15.8595787,35.2311033 15.8595787,35.7100834 L15.8595787,37.282329 L16.4799527,37.282329 Z" fill-opacity="0.9" fill="#FFFFFF"/></g></svg>

<svg width="48" height="48" viewBox="0 0 48 48" xmlns="http://www.w3.org/2000/svg"><g fill="none" fill-rule="evenodd"><path d="M0 0h48v48H0z"/><path d="M24 13.242a10.425 10.425 0 0 0-4.013 8.226A10.425 10.425 0 0 0 24 29.694a10.425 10.425 0 0 0 4.013-8.226A10.425 10.425 0 0 0 24 13.242zM30.493 11c-2.15 0-4.15.644-5.816 1.75.085.069.172.137.254.209a11.259 11.259 0 0 1 3.895 8.509 11.26 11.26 0 0 1-3.895 8.51c-.082.07-.169.14-.254.209a10.484 10.484 0 0 0 5.816 1.75C36.296 31.936 41 27.25 41 21.467 41 15.687 36.296 11 30.493 11zM23.07 29.977c.082.071.169.14.254.21a10.483 10.483 0 0 1-5.816 1.75C11.704 31.936 7 27.25 7 21.467 7 15.687 11.704 11 17.507 11c2.15 0 4.15.644 5.816 1.75-.085.069-.171.137-.254.209a11.26 11.26 0 0 0-3.895 8.509c0 3.262 1.42 6.364 3.895 8.51zm17.602-2.022v-.406h-.106l-.123.279-.122-.28h-.107v.407h.075v-.307l.115.265h.078l.115-.265v.307h.075zm-.674 0v-.337h.136v-.069h-.347v.069h.136v.337h.075zM35.853 37.07v.069h.065a.065.065 0 0 0 .034-.009.031.031 0 0 0 .014-.026.03.03 0 0 0-.014-.026.06.06 0 0 0-.034-.009h-.065zm.065-.05c.033 0 .06.008.077.023a.076.076 0 0 1 .027.06c0 .022-.007.04-.021.054a.11.11 0 0 1-.062.026l.085.098h-.067l-.079-.098h-.025v.098h-.055v-.26h.12zm-.017.35a.225.225 0 0 0 .154-.064.216.216 0 0 0 .046-.07.211.211 0 0 0 0-.17.212.212 0 0 0-.116-.116.205.205 0 0 0-.084-.016c-.03 0-.06.005-.086.017a.214.214 0 0 0-.133.2.223.223 0 0 0 .063.156.214.214 0 0 0 .156.064zm0-.5a.27.27 0 0 1 .11.023.279.279 0 0 1 0 .517.288.288 0 0 1-.375-.15.257.257 0 0 1-.022-.108c0-.039.007-.075.022-.11a.276.276 0 0 1 .152-.15.288.288 0 0 1 .113-.021zm-4.515-2.484c.124 0 .302.024.438.077l-.19.58a.996.996 0 0 0-.384-.072c-.402 0-.603.26-.603.727v1.584h-.615v-2.825h.609v.343a.835.835 0 0 1 .745-.414zm-2.271.633h-1.006v1.276c0 .284.1.473.408.473.16 0 .361-.053.544-.16l.177.526c-.195.136-.502.22-.768.22-.727 0-.98-.391-.98-1.047v-1.288h-.574v-.562h.573V33.6h.62v.857h1.006v.562zm-7.868.602c.065-.407.314-.686.75-.686.396 0 .65.249.716.686h-1.466zm2.104.249c-.006-.881-.549-1.484-1.342-1.484-.827 0-1.406.603-1.406 1.484 0 .897.602 1.483 1.448 1.483.426 0 .815-.107 1.158-.396l-.301-.455c-.236.189-.538.295-.822.295-.395 0-.756-.183-.845-.691h2.098c.006-.077.012-.154.012-.236zm2.701-.692a1.812 1.812 0 0 0-.88-.243c-.337 0-.537.125-.537.332 0 .189.212.242.478.277l.289.042c.615.089.987.349.987.845 0 .538-.473.922-1.288.922-.461 0-.887-.118-1.224-.366l.29-.48c.207.16.514.296.94.296.42 0 .644-.123.644-.343 0-.159-.159-.248-.497-.295l-.29-.04c-.632-.09-.975-.374-.975-.834 0-.562.462-.905 1.177-.905.45 0 .857.1 1.152.296l-.266.496zm7.58-.208a.931.931 0 0 0-.352.066.846.846 0 0 0-.468.475.972.972 0 0 0-.068.368.97.97 0 0 0 .068.369.846.846 0 0 0 .468.474.918.918 0 0 0 .353.066.916.916 0 0 0 .352-.066.845.845 0 0 0 .472-.474.97.97 0 0 0 .067-.369.972.972 0 0 0-.067-.368.86.86 0 0 0-.472-.475.929.929 0 0 0-.352-.066zm0-.584c.22 0 .423.038.61.114a1.437 1.437 0 0 1 .804.786c.077.183.116.38.116.593 0 .213-.039.41-.116.593a1.44 1.44 0 0 1-.805.787 1.602 1.602 0 0 1-.608.113c-.22 0-.423-.038-.61-.113a1.48 1.48 0 0 1-.482-.314 1.468 1.468 0 0 1-.434-1.066 1.465 1.465 0 0 1 .434-1.065c.136-.133.297-.238.483-.314.186-.076.39-.114.609-.114zM17.657 35.87c0-.497.326-.905.857-.905.508 0 .851.39.851.905 0 .514-.343.904-.851.904-.531 0-.857-.408-.857-.904zm2.287 0v-1.413h-.614v.343c-.196-.254-.49-.414-.893-.414-.792 0-1.412.62-1.412 1.484 0 .862.62 1.483 1.412 1.483.402 0 .697-.16.893-.414v.343h.614V35.87zm-3.463 1.412V35.51c0-.668-.426-1.117-1.11-1.123-.361-.006-.734.106-.994.503-.195-.313-.503-.503-.934-.503-.301 0-.597.089-.828.42v-.349H12v2.825h.62v-1.566c0-.49.272-.75.692-.75.408 0 .615.265.615.744v1.572h.62v-1.566c0-.49.284-.75.692-.75.42 0 .62.265.62.744v1.572h.621z" fill-opacity=".9" fill="#FFF"/></g></svg>
